app/images/icons/advice-info-1.svg

<svg xmlns="http://www.w3.org/2000/svg" fill="none" viewBox="0 0 40 40"><defs/><path fill="#F3F1EF" d="M3.62367 0v5.2907H1.5625v2.33922h2.06117v4.43058H1.5625v2.3393h2.06117v4.4306H1.5625v2.3392h2.06117v4.4306H1.5625v2.3393h2.06117v4.4306H1.5625v2.3392h2.06117V40H38.4375V0H3.62367zM36.0938 37.6608H5.96742v-2.9516h2.0611V32.37h-2.0611v-4.4306h2.0611v-2.3392h-2.0611v-4.4307h2.0611v-2.3392h-2.0611v-4.4306h2.0611v-2.3392h-2.0611V7.62992h2.0611V5.2907h-2.0611V2.33914H36.0938V37.6608z"/><path fill="#F3F1EF" d="M24.1565 9.12561h7.6003v2.33919h-7.6003V9.12561zM24.1565 18.8372h7.6003v2.3392h-7.6003v-2.3392zM24.1565 29.3149h7.6003v2.3393h-7.6003v-2.3393zM20.564 8.11061l-1.6572-1.65407-3.7905 3.78316-1.7544-1.75097-1.6573 1.65397 3.4117 3.405 5.4477-5.43709zM20.564 17.9657l-1.6572-1.6541-3.7905 3.7832-1.7544-1.751-1.6573 1.6541 3.4117 3.4049 5.4477-5.4371zM20.564 27.821l-1.6572-1.654-3.7905 3.783-1.7544-1.7509-1.6573 1.6541 3.4117 3.4049 5.4477-5.4371z"/></svg>

<svg width="40" height="40" viewBox="0 0 40 40" fill="none" xmlns="http://www.w3.org/2000/svg">
<path d="M3.62367 0V5.2907H1.5625V7.62992H3.62367V12.0605H1.5625V14.3998H3.62367V18.8304H1.5625V21.1696H3.62367V25.6002H1.5625V27.9395H3.62367V32.3701H1.5625V34.7093H3.62367V40H38.4375V0H3.62367ZM36.0938 37.6608H5.96742V34.7092H8.02852V32.37H5.96742V27.9394H8.02852V25.6002H5.96742V21.1695H8.02852V18.8303H5.96742V14.3997H8.02852V12.0605H5.96742V7.62992H8.02852V5.2907H5.96742V2.33914H36.0938V37.6608Z" fill="#F3F1EF"/>
<path d="M24.1565 9.12561H31.7568V11.4648H24.1565V9.12561Z" fill="#F3F1EF"/>
<path d="M24.1565 18.8372H31.7568V21.1764H24.1565V18.8372Z" fill="#F3F1EF"/>
<path d="M24.1565 29.3149H31.7568V31.6542H24.1565V29.3149Z" fill="#F3F1EF"/>
<path d="M20.564 8.11061L18.9068 6.45654L15.1163 10.2397L13.3619 8.48873L11.7046 10.1427L15.1163 13.5477L20.564 8.11061Z" fill="#F3F1EF"/>
<path d="M20.564 17.9657L18.9068 16.3116L15.1163 20.0948L13.3619 18.3438L11.7046 19.9979L15.1163 23.4028L20.564 17.9657Z" fill="#F3F1EF"/>
<path d="M20.564 27.821L18.9068 26.167L15.1163 29.95L13.3619 28.1991L11.7046 29.8532L15.1163 33.2581L20.564 27.821Z" fill="#F3F1EF"/>
</svg>
